Papirus/48x48/apps/allegorithmic-Substance_Designer.svg

<svg width="48" height="48" version="1.1" xmlns="http://www.w3.org/2000/svg">
 <path d="m24.000001 4.0000248c-1.108002 0-2.000001 0.8920441-2.000001 2.0000126v2.0000126h-12c-1.662 0-3 1.3379906-3 3v12h-2.0000001c-1.1079999 0-1.9999996 0.892007-1.9999996 1.999975 0 1.108006 0.8919997 2.000013 1.9999996 2.000013h2.0000001v12c0 1.662009 1.338 3 3 3h27.999998c1.661998 0 3-1.337991 3-3v-12h2.000001c1.107999 0 2.000001-0.892007 2.000001-2.000013 0-1.107968-0.892002-1.999975-2.000001-1.999975h-2.000001v-12c0-1.6620094-1.338002-3-3-3h-11.999999v-2.0000126c0-1.1079685-0.891999-2.0000126-1.999998-2.0000126z" style="fill:#f04b23"/>
 <path d="m24 3.999987c-1.108003 0-2 0.8920441-2 2.0000126v0.9999874c0-1.1079685 0.891997-2.0000126 2-2.0000126 1.107999 0 2 0.8920441 2 2.0000126v-0.9999874c0-1.1079685-0.892001-2.0000126-2-2.0000126zm-14 3.9999874c-1.662 0-3 1.3379906-3 2.9999996v1.000026c0-1.66201 1.338-3.0000003 3-3.0000003h12v-1.0000253zm16 0v1.0000253h12.000002c1.661998 0 3 1.3379903 3 3.0000003v-1.000026c0-1.662009-1.338002-2.9999996-3-2.9999996zm-21 15.000001c-1.1079998 0-2.0000001 0.892044-2.0000001 2.000012 0 0.173858 0.029012 0.339402 0.070312 0.499994 0.2219517-0.86298 0.9955227-1.499981 1.9296881-1.499981h1.9999998v-1.000025zm36.000002 0v1.000025h1.999997c0.934167 0 1.707738 0.637001 1.929691 1.499981 0.04131-0.16063 0.0703-0.326173 0.0703-0.499994 0-1.107968-0.892002-2.000012-2.000001-2.000012z" style="fill:#ffffff;opacity:.2"/>
 <path d="m3.0703125 25.499981c-0.041302 0.16063-0.070312 0.326173-0.070312 0.499994 0 1.108006 0.8920002 2.000012 2 2.000012h1.9999994v-0.999987h-1.9999998c-0.9341654 0-1.7077363-0.637002-1.9296876-1.500019zm41.859378 0c-0.221972 0.863017-0.995524 1.500019-1.929691 1.500019h-1.999997v0.999987h1.999997c1.107999 0 2.000001-0.892006 2.000001-2.000012 0-0.173859-0.0291-0.339402-0.0703-0.499994zm-37.92969 13.500019v0.999987c0 1.66201 1.338 3 3 3h28.000002c1.661998 0 3-1.33799 3-3v-0.999987c0 1.662009-1.338002 3-3 3h-28.000002c-1.662 0-3-1.337991-3-3z" style="fill:#000006;opacity:.2"/>
 <path d="m23.999997 12-11.999997 6.999987v6l17.454893 5.817714-5.454893 3.182286-7-3.999987v-1.333342l-5-1.666658v6l12 6 12-6v-6.000038l-17.454898-5.817676 5.454898-2.682293 7 3.499994v1.333304l5 1.666696v-6z" style="opacity:.2"/>
 <path d="m24 12-12 6v6l17.454893 5.817713-5.454893 2.682293-7-3.499994v-1.333341l-5-1.666659v6.000001l12 6 12-6v-6.000038l-17.454898-5.817676 5.454898-2.682293 7 3.499994v1.333304l5 1.666696v-6z" style="fill:#ffffff"/>
</svg>

<svg xmlns="http://www.w3.org/2000/svg" width="48" height="48" version="1.1">
 <path style="opacity:0.2" d="M 24,5 C 22.892,5 22,5.8921 22,7 V 9 H 10 C 8.338,9 7,10.338 7,12 V 24 H 5 C 3.892,24 3,24.892 3,26 3,27.108 3.892,28 5,28 H 7 V 40 C 7,41.662 8.338,43 10,43 H 38 C 39.662,43 41,41.662 41,40 V 28 H 43 C 44.108,28 45,27.108 45,26 45,24.892 44.108,24 43,24 H 41 V 12 C 41,10.338 39.662,9 38,9 H 26 V 7 C 26,5.8921 25.108,5 24,5 Z"/>
 <path style="fill:#f04b23" d="M 24,4 C 22.892,4 22,4.8921 22,6 V 8 H 10 C 8.338,8 7,9.338 7,11 V 23 H 5 C 3.892,23 3,23.892 3,25 3,26.108 3.892,27 5,27 H 7 V 39 C 7,40.662 8.338,42 10,42 H 38 C 39.662,42 41,40.662 41,39 V 27 H 43 C 44.108,27 45,26.108 45,25 45,23.892 44.108,23 43,23 H 41 V 11 C 41,9.338 39.662,8 38,8 H 26 V 6 C 26,4.8921 25.108,4 24,4 Z"/>
 <path style="opacity:0.2" d="M 24,13 12,19 V 25 L 29.455,30.818 24,33.5 17,30 V 28.667 L 12,27 V 33 L 24,39 36,33 V 27 L 18.545,21.182 24,18.5 31,22 V 23.333 L 36,25 V 19 Z"/>
 <path style="fill:#ffffff" d="M 24,12 12,18 V 24 L 29.455,29.818 24,32.5 17,29 V 27.667 L 12,26 V 32 L 24,38 36,32 V 26 L 18.545,20.182 24,17.5 31,21 V 22.333 L 36,24 V 18 Z"/>
 <path style="fill:#ffffff;opacity:0.2" d="M 24 4 C 22.892 4 22 4.8921 22 6 L 22 7 C 22 5.8921 22.892 5 24 5 C 25.108 5 26 5.8921 26 7 L 26 6 C 26 4.8921 25.108 4 24 4 z M 10 8 C 8.338 8 7 9.338 7 11 L 7 12 C 7 10.338 8.338 9 10 9 L 22 9 L 22 8 L 10 8 z M 26 8 L 26 9 L 38 9 C 39.662 9 41 10.338 41 12 L 41 11 C 41 9.338 39.662 8 38 8 L 26 8 z M 5 23 C 3.892 23 3 23.892 3 25 C 3 25.174 3.029 25.339 3.0703 25.5 C 3.2923 24.637 4.0658 24 5 24 L 7 24 L 7 23 L 5 23 z M 41 23 L 41 24 L 43 24 C 43.934 24 44.708 24.637 44.93 25.5 C 44.971 25.339 45 25.174 45 25 C 45 23.892 44.108 23 43 23 L 41 23 z"/>
</svg>
